svgs/duotone/list.svg

<svg xmlns="http://www.w3.org/2000/svg" viewBox="0 0 512 512"><!--! Font Awesome Pro 6.5.1 by @fontawesome - https://fontawesome.com License - https://fontawesome.com/license (Commercial License) Copyright 2023 Fonticons, Inc. --><defs><style>.fa-secondary{opacity:.4}</style></defs><path class="fa-secondary" d="M160 96c0-17.7 14.3-32 32-32H480c17.7 0 32 14.3 32 32s-14.3 32-32 32H192c-17.7 0-32-14.3-32-32zm0 160c0-17.7 14.3-32 32-32H480c17.7 0 32 14.3 32 32s-14.3 32-32 32H192c-17.7 0-32-14.3-32-32zm32 128H480c17.7 0 32 14.3 32 32s-14.3 32-32 32H192c-17.7 0-32-14.3-32-32s14.3-32 32-32z"/><path class="fa-primary" d="M16 72c0-13.3 10.7-24 24-24H88c13.3 0 24 10.7 24 24v48c0 13.3-10.7 24-24 24H40c-13.3 0-24-10.7-24-24V72zm0 160c0-13.3 10.7-24 24-24H88c13.3 0 24 10.7 24 24v48c0 13.3-10.7 24-24 24H40c-13.3 0-24-10.7-24-24V232zM40 368H88c13.3 0 24 10.7 24 24v48c0 13.3-10.7 24-24 24H40c-13.3 0-24-10.7-24-24V392c0-13.3 10.7-24 24-24z"/></svg>

<svg xmlns="http://www.w3.org/2000/svg" viewBox="0 0 512 512"><!--! Font Awesome Pro 6.1.1 by @fontawesome - https://fontawesome.com License - https://fontawesome.com/license (Commercial License) Copyright 2022 Fonticons, Inc. --><defs><style>.fa-secondary{opacity:.4}</style></defs><path class="fa-primary" d="M16 72C16 58.75 26.75 48 40 48H88C101.3 48 112 58.75 112 72V120C112 133.3 101.3 144 88 144H40C26.75 144 16 133.3 16 120V72zM16 232C16 218.7 26.75 208 40 208H88C101.3 208 112 218.7 112 232V280C112 293.3 101.3 304 88 304H40C26.75 304 16 293.3 16 280V232zM88 368C101.3 368 112 378.7 112 392V440C112 453.3 101.3 464 88 464H40C26.75 464 16 453.3 16 440V392C16 378.7 26.75 368 40 368H88z"/><path class="fa-secondary" d="M160 96C160 78.33 174.3 64 192 64H480C497.7 64 512 78.33 512 96C512 113.7 497.7 128 480 128H192C174.3 128 160 113.7 160 96zM160 256C160 238.3 174.3 224 192 224H480C497.7 224 512 238.3 512 256C512 273.7 497.7 288 480 288H192C174.3 288 160 273.7 160 256zM480 384C497.7 384 512 398.3 512 416C512 433.7 497.7 448 480 448H192C174.3 448 160 433.7 160 416C160 398.3 174.3 384 192 384H480z"/></svg>
